src/com/lilithsthrone/res/perks/physical_accurate.svg

<?xml version="1.0" encoding="UTF-8" standalone="no"?>
<!-- Created with Inkscape (http://www.inkscape.org/) -->

<svg
   xmlns:dc="http://purl.org/dc/elements/1.1/"
   xmlns:cc="http://creativecommons.org/ns#"
   xmlns:rdf="http://www.w3.org/1999/02/22-rdf-syntax-ns#"
   xmlns:svg="http://www.w3.org/2000/svg"
   xmlns="http://www.w3.org/2000/svg"
   xmlns:sodipodi="http://sodipodi.sourceforge.net/DTD/sodipodi-0.dtd"
   xmlns:inkscape="http://www.inkscape.org/namespaces/inkscape"
   width="100%"
   height="100%"
   viewBox="0 0 64.000001 64.000001"
   id="svg4311"
   version="1.1"
   inkscape:version="0.91 r13725"
   sodipodi:docname="physical_accurate.svg">
  <defs
     id="defs4313" />
  <sodipodi:namedview
     id="base"
     pagecolor="#ffffff"
     bordercolor="#666666"
     borderopacity="1.0"
     inkscape:pageopacity="0.0"
     inkscape:pageshadow="2"
     inkscape:zoom="7.9999996"
     inkscape:cx="23.709962"
     inkscape:cy="33.325398"
     inkscape:document-units="px"
     inkscape:current-layer="layer1"
     showgrid="false"
     units="px"
     inkscape:window-width="2560"
     inkscape:window-height="1388"
     inkscape:window-x="-8"
     inkscape:window-y="-8"
     inkscape:window-maximized="1" />
  <metadata
     id="metadata4316">
    <rdf:RDF>
      <cc:Work
         rdf:about="">
        <dc:format>image/svg+xml</dc:format>
        <dc:type
           rdf:resource="http://purl.org/dc/dcmitype/StillImage" />
        <dc:title></dc:title>
      </cc:Work>
    </rdf:RDF>
  </metadata>
  <g
     inkscape:label="Layer 1"
     inkscape:groupmode="layer"
     id="layer1"
     transform="translate(0,-988.36216)"
     style="display:inline">
    <path
       style="fill:#ff8080;fill-opacity:1;stroke:#000000;stroke-width:0.94999999;stroke-linecap:round;stroke-linejoin:round;stroke-miterlimit:4;stroke-dasharray:none;stroke-dashoffset:0;stroke-opacity:1"
       d="M 32.375,993.15864 A 27.33548,27.45423 0 0 0 5.0402344,1020.6122 27.33548,27.45423 0 0 0 32.375,1048.0657 27.33548,27.45423 0 0 0 59.709766,1020.6122 27.33548,27.45423 0 0 0 32.375,993.15864 Z m 0,3.91504 A 23.436757,23.538571 0 0 1 55.811426,1020.6122 23.436757,23.538571 0 0 1 32.375,1044.1506 23.436757,23.538571 0 0 1 8.9385742,1020.6122 23.436757,23.538571 0 0 1 32.375,997.07368 Z"
       id="path4165"
       inkscape:connector-curvature="0" />
    <path
       style="fill:#ff8080;fill-rule:evenodd;stroke:#000000;stroke-width:1px;stroke-linecap:butt;stroke-linejoin:miter;stroke-opacity:1"
       d="m 29.750001,1051.5185 0,-11.7813 5.625001,-0.125 0.03125,11.875 z"
       id="path4170"
       inkscape:connector-curvature="0"
       sodipodi:nodetypes="ccccc" />
    <path
       style="display:inline;fill:#ff8080;fill-rule:evenodd;stroke:#000000;stroke-width:1px;stroke-linecap:butt;stroke-linejoin:miter;stroke-opacity:1"
       d="m 29.796221,1001.6945 0,-11.7813 5.625001,-0.125 0.03125,11.875 z"
       id="path4170-9"
       inkscape:connector-curvature="0"
       sodipodi:nodetypes="ccccc" />
    <path
       style="display:inline;fill:#ff8080;fill-rule:evenodd;stroke:#000000;stroke-width:1px;stroke-linecap:butt;stroke-linejoin:miter;stroke-opacity:1"
       d="m 1.2696979,1017.7369 11.7811641,0.057 0.09797,5.6256 -11.8750133,-0.026 z"
       id="path4170-2"
       inkscape:connector-curvature="0"
       sodipodi:nodetypes="ccccc" />
    <path
       style="display:inline;fill:#ff8080;fill-rule:evenodd;stroke:#000000;stroke-width:1px;stroke-linecap:butt;stroke-linejoin:miter;stroke-opacity:1"
       d="m 51.092861,1018.0226 11.781204,0.057 0.09797,5.6255 -11.875054,-0.026 z"
       id="path4170-9-2"
       inkscape:connector-curvature="0"
       sodipodi:nodetypes="ccccc" />
    <ellipse
       style="fill:#ff8080;fill-opacity:1;stroke:#000000;stroke-width:0.97565043;stroke-linecap:round;stroke-linejoin:round;stroke-miterlimit:4;stroke-dasharray:none;stroke-dashoffset:0;stroke-opacity:1"
       id="path4205"
       cx="32.461273"
       cy="1020.7558"
       rx="5.624835"
       ry="5.5806408" />
  </g>
</svg>

<svg xmlns="http://www.w3.org/2000/svg" viewBox="0 0 64 64">
    <g fill="#ff8080" stroke="#000" transform="translate(0 -988.362)">
        <path stroke-linecap="round" stroke-linejoin="round" stroke-width=".95" d="M32.375 993.159a27.335 27.454 0 0 0-27.335 27.453 27.335 27.454 0 0 0 27.335 27.454 27.335 27.454 0 0 0 27.335-27.454 27.335 27.454 0 0 0-27.335-27.453zm0 3.915a23.437 23.539 0 0 1 23.436 23.538 23.437 23.539 0 0 1-23.436 23.539 23.437 23.539 0 0 1-23.436-23.539 23.437 23.539 0 0 1 23.436-23.538z"/>
        <path fill-rule="evenodd" d="M29.75 1051.518v-11.78l5.625-.126.031 11.875zM29.796 1001.694v-11.78l5.625-.126.031 11.875zM1.27 1017.737l11.78.057.099 5.626-11.875-.026zM51.093 1018.023l11.781.057.098 5.625-11.875-.026z"/>
        <ellipse cx="32.461" cy="1020.756" stroke-linecap="round" stroke-linejoin="round" stroke-width=".976" rx="5.625" ry="5.581"/>
    </g>
</svg>
